X: 24
T: Morrison's
Z: tziguk
S: https://thesession.org/tunes/71#setting53407
R: jig
M: 6/8
L: 1/8
K: Edor
|:E3 B3|EBE AFD|E3 B3|dcB AFD|
E3 B3|EBE AFD|G3 FGA|dAG FED:|
Bee fee|aee fee|Bee fee|f/g/ag fed|
Bee fee|aee fee|gfe d2A|BAG FGA|
Bee fee|aee fee|Bee fee|f/g/af def|
g3 gfe|def g2d|edc d2A|BAG FED||

